X: 595
T: Dîl-i Bîçâre Senin Çün Yanıyor
C: Mahmud Celâleddin Paşa
O: Turkey
F: http://compmusic.upf.edu/node/140
N: isfahan--sarki--devrihindi--dil-i_bicare--mahmud_celaleddin_pasa
N: makam= isfahan
N: form= sarki
N: usul= devrihindi = 7/4
M: 7/4
L: 1/16
K: C _2/4B   
Q: 1/4=78
%%MIDI tuningsystem comma53
A2B2 c2d2 e2f2 e2d2 c2e2 d8  | ^c2d2 e2^3/4f2 g2a2 g2^f2 ^e2g2 f8  | 
w:  ARANAĞME  |   | 
c'2b2 a2g2 f2e2 a2g2 f2e2 d2c2 B2c2  | \
w:   | 
f2e2 d4 c2B2 B2A2 c2{d}BA A8  | 
w:   | 
A2B2 c2d2 e2f2 e2d2 c2e2 d8  | ^c2d2 e2^3/4f2 g2a2 g2^f2 ^e2g2 f8  | 
w:  ARANAĞME  |   | 
c'2b2 a2g2 f2e2 a2g2 f2e2 d2c2 B2c2  | \
w:   | 
f2e2 d4 c2B2 B2A2 c2{d}BA A8  | 
w:   | 
A8 e2f2 e2d2 d2c2 d8  | a2g2 f2e2 e2d2 d3c B2d2 c2d2 c2B2  | 
w:  Dîl_ i  *  bî *  *  *  çâ  |  re  *  *  *  se *  nin  *  *  *  çün   | 
B2c2 d4 e2^2/4f2 g2=f2 e2d2 c2B2 .A4  | \
w:  ya *  *  nı *  yor    | 
{a}g4 f2e2 eddc d6ef edcB A4  | 
w:  *  ya *  *  nı *  *  *  yor   SAZ  | 
A8 e2f2 e2d2 d2c2 d8  | a2g2 f2e2 e2d2 d3c B2d2 c2d2 c2B2  | 
w:  Dîl_ i  *  bî *  *  *  çâ  |  re  *  *  *  se *  nin  *  *  *  çün   | 
B2c2 d4 e2^2/4f2 g2=f2 e2d2 c2B2 .A4  | \
w:  ya *  *  nı *  yor    | 
{a}g4 f2e2 eddc d6ef eddc d4  | 
w:  *  ya *  *  nı *  *  *  yor   SAZ  | 
d8 a4 g2f2 e2d2 agfe d4  | e2f2 g2e2 e2d2 d3c B2d2 c2d2 c2B2  | 
w:  Vus lat_ ey *  *  *  yâ  |  mı *  *  *  nı  *  dâ *  *  *  im_  | 
B2c2 d4 e2^2/4f2 g3=f e2d2 c2B2 A2B2  | \
w:  a *  *  nı *  yor    | 
d4 c2B2 B2A2 A6ef eddc d4  | 
w:  a *  *  nı *  yor   SAZ  | 
d8 a4 g2f2 e2d2 agfe d4  | e2f2 g2e2 e2d2 d3c B2d2 c2d2 c2B2  | 
w:  Vus lat_ ey *  *  *  yâ  |  mı *  *  *  nı  *  dâ *  *  *  im_  | 
B2c2 d4 e2^2/4f2 g3=f e2d2 c2B2 A2B2  | \
w:  a *  *  nı *  yor    | 
d4 c2B2 B2A2 A6g2 ^f2^e2 f4  | 
w:  a *  *  nı *  yor   SAZ  | 
^f8 g4 f2g2 f2^e2 d3^c =B4  | ^c2d2 ^e2^f2 g2a2 g3f e2g2 f8  | \
w:  Vâd_ i  fer *  *  *  dâ  |  ya  *  *  *  ne  *  yap *  *  *  sın   | 
^c2d2 e2^f2 g2a2 aga_1/4b a2g2 f3e d4  | 
w:  ka *  *  *  nı *  yor    | 
g4 ^f2d2 e2{f}ed d6g2 f2^e2 f4  | \
w:  ka *  *  nı *  *  *  yor   SAZ  | 
^f8 g4 f2g2 f2^e2 d3^c =B4  | ^c2d2 ^e2^f2 g2a2 g3f e2g2 f8  | 
w:  Vâd_ i  fer *  *  *  dâ  |  ya  *  *  *  ne  *  yap *  *  *  sın   | 
^c2d2 e2^f2 g2a2 aga_1/4b a2g2 f3e d4  | \
w:  ka *  *  *  nı *  yor    | 
g4 ^f2d2 e2{f}ed d6ef eddc d4  | 
w:  ka *  *  nı *  *  *  yor   SAZ  | 
d8 a4 g2f2 e2d2 agfe d4  | e2f2 g2e2 e2d2 d3c B2d2 c2d2 c2B2  | 
w:  Vus lat_ ey *  *  *  yâ  |  mı *  *  *  nı  *  dâ *  *  *  im_  | 
B2c2 d4 e2^2/4f2 g3=f e2d2 c2B2 A2B2  | \
w:  a *  *  nı *  yor    | 
d4 c2B2 B2A2 A6ef eddc d4  | 
w:  a *  *  nı *  yor   SAZ  | 
d8 a4 g2f2 e2d2 agfe d4  | e2f2 g2e2 e2d2 d3c B2d2 c2d2 c2B2  | 
w:  Vus lat_ ey *  *  *  yâ  |  mı *  *  *  nı  *  dâ *  *  *  im_  | 
B2c2 d4 e2^2/4f2 g3=f e2d2 c2B2 A2B2  | \
w:  a *  *  nı *  yor    | 
d4 c2B2 B2A2 A8 z8  | |


